flaticon/science/newtons-cradle.svg

<svg xmlns="http://www.w3.org/2000/svg" width="32" height="32" viewBox="0 0 24 24">
    <path d="M 22.800781 19.199219 L 21.601562 19.199219 L 21.601562 6.359375 C 22.523438 6.179688 23.199219 5.382812 23.199219 4.398438 C 23.199219 3.28125 22.320312 2.398438 21.199219 2.398438 C 20.535156 2.398438 19.953125 2.710938 19.589844 3.199219 L 4.410156 3.199219 C 4.046875 2.710938 3.464844 2.398438 2.800781 2.398438 C 1.679688 2.398438 0.800781 3.28125 0.800781 4.398438 C 0.800781 5.382812 1.476562 6.179688 2.398438 6.359375 L 2.398438 19.199219 L 1.199219 19.199219 C 0.519531 19.199219 0 19.71875 0 20.398438 C 0 21.078125 0.519531 21.601562 1.199219 21.601562 L 22.800781 21.601562 C 23.480469 21.601562 24 21.078125 24 20.398438 C 24 19.71875 23.480469 19.199219 22.800781 19.199219 Z M 21.199219 3.199219 C 21.878906 3.199219 22.398438 3.71875 22.398438 4.398438 C 22.398438 5.078125 21.878906 5.601562 21.199219 5.601562 C 20.769531 5.601562 20.40625 5.394531 20.195312 5.070312 C 20.1875 5.046875 20.175781 5.023438 20.160156 5 C 20.101562 4.902344 20.0625 4.808594 20.039062 4.710938 C 20.027344 4.671875 20.019531 4.628906 20.011719 4.585938 C 20.011719 4.566406 20.007812 4.546875 20.007812 4.527344 C 20.007812 4.523438 20.003906 4.519531 20.003906 4.515625 C 20.003906 4.5 20.003906 4.484375 20 4.464844 C 20 4.445312 20 4.421875 20 4.398438 C 20 4.378906 20 4.355469 20 4.332031 C 20.003906 4.316406 20.003906 4.300781 20.003906 4.285156 C 20.003906 4.28125 20.007812 4.277344 20.007812 4.273438 C 20.007812 4.253906 20.011719 4.234375 20.011719 4.214844 C 20.011719 4.214844 20.011719 4.214844 20.011719 4.210938 C 20.019531 4.171875 20.027344 4.128906 20.039062 4.089844 C 20.0625 3.992188 20.101562 3.894531 20.160156 3.800781 C 20.175781 3.777344 20.1875 3.753906 20.195312 3.730469 C 20.40625 3.40625 20.769531 3.199219 21.199219 3.199219 Z M 19.238281 4 C 19.238281 4.003906 19.238281 4.007812 19.238281 4.011719 C 19.199219 4.128906 19.199219 4.285156 19.199219 4.398438 C 19.199219 4.515625 19.199219 4.667969 19.238281 4.789062 C 19.238281 4.792969 19.238281 4.796875 19.238281 4.800781 L 16.148438 4.800781 C 16.0625 4.769531 15.96875 4.765625 15.878906 4.800781 L 4.761719 4.800781 C 4.761719 4.796875 4.761719 4.792969 4.761719 4.789062 C 4.800781 4.667969 4.800781 4.515625 4.800781 4.398438 C 4.800781 4.285156 4.800781 4.128906 4.761719 4.011719 C 4.761719 4.007812 4.761719 4.003906 4.761719 4 Z M 13.601562 11.601562 C 14.039062 11.601562 14.398438 11.960938 14.398438 12.398438 C 14.398438 12.839844 14.039062 13.199219 13.601562 13.199219 C 13.160156 13.199219 12.800781 12.839844 12.800781 12.398438 C 12.800781 11.960938 13.160156 11.601562 13.601562 11.601562 Z M 13.199219 10.851562 C 12.886719 10.933594 12.609375 11.109375 12.398438 11.34375 C 12.191406 11.109375 11.914062 10.933594 11.601562 10.851562 L 11.601562 5.601562 L 13.199219 5.601562 Z M 6.398438 11.601562 C 6.839844 11.601562 7.199219 11.960938 7.199219 12.398438 C 7.199219 12.839844 6.839844 13.199219 6.398438 13.199219 C 5.960938 13.199219 5.601562 12.839844 5.601562 12.398438 C 5.601562 11.960938 5.960938 11.601562 6.398438 11.601562 Z M 6.800781 10.851562 L 6.800781 5.601562 L 8.398438 5.601562 L 8.398438 10.851562 C 8.085938 10.933594 7.808594 11.109375 7.601562 11.34375 C 7.390625 11.109375 7.113281 10.933594 6.800781 10.851562 Z M 8.800781 11.601562 C 9.238281 11.601562 9.601562 11.960938 9.601562 12.398438 C 9.601562 12.839844 9.238281 13.199219 8.800781 13.199219 C 8.359375 13.199219 8 12.839844 8 12.398438 C 8 11.960938 8.359375 11.601562 8.800781 11.601562 Z M 9.199219 10.851562 L 9.199219 5.601562 L 10.800781 5.601562 L 10.800781 10.851562 C 10.484375 10.933594 10.207031 11.109375 10 11.34375 C 9.792969 11.109375 9.515625 10.933594 9.199219 10.851562 Z M 11.199219 11.601562 C 11.640625 11.601562 12 11.960938 12 12.398438 C 12 12.839844 11.640625 13.199219 11.199219 13.199219 C 10.761719 13.199219 10.398438 12.839844 10.398438 12.398438 C 10.398438 11.960938 10.761719 11.601562 11.199219 11.601562 Z M 1.601562 4.398438 C 1.601562 3.71875 2.121094 3.199219 2.800781 3.199219 C 3.230469 3.199219 3.59375 3.40625 3.804688 3.730469 C 3.8125 3.753906 3.824219 3.777344 3.839844 3.800781 C 3.898438 3.894531 3.9375 3.992188 3.960938 4.089844 C 3.972656 4.128906 3.980469 4.171875 3.988281 4.210938 C 3.988281 4.214844 3.988281 4.214844 3.988281 4.214844 C 3.988281 4.234375 3.992188 4.253906 3.992188 4.273438 C 3.992188 4.277344 3.996094 4.28125 3.996094 4.285156 C 3.996094 4.300781 3.996094 4.316406 4 4.332031 C 4 4.355469 4 4.378906 4 4.398438 C 4 4.421875 4 4.445312 4 4.464844 C 3.996094 4.484375 3.996094 4.5 3.996094 4.515625 C 3.996094 4.519531 3.992188 4.523438 3.992188 4.527344 C 3.992188 4.546875 3.988281 4.566406 3.988281 4.585938 C 3.980469 4.628906 3.972656 4.671875 3.960938 4.710938 C 3.9375 4.808594 3.898438 4.902344 3.839844 5 C 3.824219 5.023438 3.8125 5.046875 3.804688 5.070312 C 3.59375 5.394531 3.230469 5.601562 2.800781 5.601562 C 2.121094 5.601562 1.601562 5.078125 1.601562 4.398438 Z M 3.199219 6.359375 C 3.695312 6.265625 4.121094 5.988281 4.410156 5.601562 L 6 5.601562 L 6 10.851562 C 5.3125 11.03125 4.800781 11.65625 4.800781 12.398438 C 4.800781 13.28125 5.519531 14 6.398438 14 C 6.875 14 7.304688 13.789062 7.601562 13.453125 C 7.894531 13.789062 8.324219 14 8.800781 14 C 9.277344 14 9.707031 13.789062 10 13.453125 C 10.292969 13.789062 10.722656 14 11.199219 14 C 11.675781 14 12.105469 13.789062 12.398438 13.453125 C 12.695312 13.789062 13.125 14 13.601562 14 C 14.480469 14 15.199219 13.28125 15.199219 12.398438 C 15.199219 11.65625 14.6875 11.03125 14 10.851562 L 14 5.601562 L 15.734375 5.601562 L 17.558594 11.039062 C 17.105469 11.324219 16.800781 11.828125 16.800781 12.398438 C 16.800781 13.28125 17.519531 14 18.398438 14 C 19.28125 14 20 13.28125 20 12.398438 C 20 11.519531 19.28125 10.800781 18.398438 10.800781 C 18.363281 10.800781 18.332031 10.800781 18.296875 10.804688 L 16.585938 5.601562 L 19.589844 5.601562 C 19.878906 5.988281 20.304688 6.265625 20.800781 6.359375 L 20.800781 19.199219 L 3.199219 19.199219 Z M 18.0625 11.675781 C 18.078125 11.671875 18.09375 11.664062 18.105469 11.65625 C 18.121094 11.652344 18.132812 11.644531 18.148438 11.640625 C 18.152344 11.640625 18.15625 11.640625 18.160156 11.640625 C 18.164062 11.636719 18.171875 11.636719 18.175781 11.632812 C 18.246094 11.613281 18.320312 11.601562 18.398438 11.601562 C 18.839844 11.601562 19.199219 11.960938 19.199219 12.398438 C 19.199219 12.839844 18.839844 13.199219 18.398438 13.199219 C 17.960938 13.199219 17.601562 12.839844 17.601562 12.398438 C 17.601562 12.082031 17.789062 11.804688 18.0625 11.675781 Z M 22.800781 20.800781 L 1.199219 20.800781 C 0.960938 20.800781 0.800781 20.640625 0.800781 20.398438 C 0.800781 20.160156 0.960938 20 1.199219 20 L 22.800781 20 C 23.039062 20 23.199219 20.160156 23.199219 20.398438 C 23.199219 20.640625 23.039062 20.800781 22.800781 20.800781 Z M 22.800781 20.800781"/>
</svg>

<svg xmlns="http://www.w3.org/2000/svg" width="32" height="32" viewBox="0 0 24 24">
    <path d="M22.8 19.2h-1.198V6.36a1.973 1.973 0 0 0 1.597-1.962c0-1.117-.879-2-2-2-.664 0-1.246.313-1.61.801H4.41a1.992 1.992 0 0 0-1.61-.8c-1.12 0-2 .882-2 2 0 .984.677 1.78 1.598 1.96V19.2H1.2C.52 19.2 0 19.72 0 20.4c0 .68.52 1.203 1.2 1.203h21.6c.68 0 1.2-.524 1.2-1.204 0-.68-.52-1.199-1.2-1.199zm-1.6-16c.679 0 1.198.519 1.198 1.198 0 .68-.52 1.204-1.199 1.204-.43 0-.793-.207-1.004-.532A.296.296 0 0 0 20.16 5a1.015 1.015 0 0 1-.12-.29 1.174 1.174 0 0 1-.028-.124c0-.02-.004-.04-.004-.059 0-.004-.004-.007-.004-.011 0-.016 0-.032-.004-.051v-.067-.066c.004-.016.004-.031.004-.047 0-.004.004-.008.004-.012 0-.02.004-.039.004-.058V4.21c.008-.04.015-.082.027-.121a.97.97 0 0 1 .121-.29.296.296 0 0 0 .035-.07c.211-.324.575-.53 1.004-.53zm-1.962.8v.012c-.039.117-.039.273-.039.386 0 .118 0 .27.04.391v.012h-3.09a.377.377 0 0 0-.27 0H4.762v-.012c.039-.121.039-.273.039-.39 0-.114 0-.27-.04-.387V4zm-5.636 7.602a.8.8 0 0 1 .796.796c0 .442-.359.801-.796.801-.442 0-.801-.36-.801-.8 0-.438.36-.797.8-.797zm-.403-.75c-.312.082-.59.257-.8.492a1.615 1.615 0 0 0-.797-.492v-5.25h1.597zm-6.8.75c.44 0 .8.359.8.796 0 .442-.36.801-.8.801a.801.801 0 0 1-.797-.8.8.8 0 0 1 .796-.797zm.402-.75v-5.25h1.597v5.25c-.312.082-.59.257-.796.492a1.644 1.644 0 0 0-.801-.492zm2 .75c.437 0 .8.359.8.796 0 .442-.363.801-.8.801-.442 0-.801-.36-.801-.8 0-.438.36-.797.8-.797zm.398-.75v-5.25h1.602v5.25a1.61 1.61 0 0 0-.801.492 1.61 1.61 0 0 0-.8-.492zm2 .75c.442 0 .801.359.801.796 0 .442-.36.801-.8.801-.438 0-.802-.36-.802-.8 0-.438.364-.797.801-.797zM1.602 4.398c0-.68.52-1.199 1.199-1.199.43 0 .793.207 1.004.531.007.024.02.047.035.07a.97.97 0 0 1 .12.29c.013.039.02.082.028.12v.005c0 .02.004.039.004.058 0 .004.004.008.004.012 0 .016 0 .031.004.047v.133c-.004.02-.004.035-.004.05 0 .005-.004.008-.004.012 0 .02-.004.04-.004.059a1.174 1.174 0 0 1-.027.125A1.015 1.015 0 0 1 3.84 5a.296.296 0 0 0-.035.07c-.211.325-.575.532-1.004.532-.68 0-1.2-.524-1.2-1.204zM3.199 6.36a1.966 1.966 0 0 0 1.211-.757H6v5.25c-.688.18-1.2.804-1.2 1.546 0 .883.72 1.602 1.598 1.602.477 0 .907-.21 1.204-.547a1.588 1.588 0 0 0 2.398 0 1.588 1.588 0 0 0 2.398 0c.297.336.727.547 1.204.547.878 0 1.597-.719 1.597-1.602 0-.742-.511-1.367-1.199-1.546v-5.25h1.734l1.825 5.437a1.61 1.61 0 0 0-.758 1.36c0 .882.719 1.601 1.597 1.601.883 0 1.602-.719 1.602-1.602 0-.878-.719-1.597-1.602-1.597-.035 0-.066 0-.101.004l-1.711-5.203h3.004c.289.386.715.664 1.21.757V19.2H3.2zm14.864 5.317a.144.144 0 0 0 .042-.02c.016-.004.028-.011.043-.015h.012c.004-.004.012-.004.016-.008a.801.801 0 0 1 1.023.766c0 .44-.36.8-.8.8a.801.801 0 0 1-.797-.8c0-.317.187-.594.46-.723zM22.8 20.8H1.199c-.238 0-.398-.16-.398-.403 0-.238.16-.398.398-.398h21.602c.238 0 .398.16.398.398 0 .243-.16.403-.398.403zm0 0"/>
</svg>
